X:281
T:The Dawn Chorus
R:jig
M:6/8
L:1/8
K:Gmaj
~B3 BAB|dBB B2d|DFA ABA|DFA AGE|
D2B BAB|dBB BAG|AB/c/d BAB|FEE E2D|
~G3 BAB|~d3 BGE|DFA ABA|DFA AGE|
D2B BAB|dBB BAG|AB/c/d BAB|FEE E2f||
g2e eag|f/g/af def|gfg aga|bge e2f|
gag gfe|ded dBd|~g3 ~B3|1 dBG G2f:|2 ~d3 DEG||

